images/ffffff/hamburger.svg

<svg xmlns="http://www.w3.org/2000/svg" width="16" height="16"><g><path fill="#ffffff" d="M14.752 6h-13.502c-.69 0-1.25.56-1.25 1.25v.5c0 .689.56 1.25 1.25 1.25h13.502c.689 0 1.25-.561 1.25-1.25v-.5c0-.69-.561-1.25-1.25-1.25zM14.752 0h-13.502c-.69 0-1.25.56-1.25 1.25v.5c0 .69.56 1.25 1.25 1.25h13.502c.689 0 1.25-.56 1.25-1.25v-.5c0-.69-.561-1.25-1.25-1.25zM14.752 12h-13.502c-.69 0-1.25.561-1.25 1.25v.5c0 .689.56 1.25 1.25 1.25h13.502c.689 0 1.25-.561 1.25-1.25v-.5c0-.689-.561-1.25-1.25-1.25z"/></g></svg>

<svg xmlns="http://www.w3.org/2000/svg" width="16" height="16"><path fill="#fff" d="M14.752 6H1.25C.56 6 0 6.56 0 7.25v.5C0 8.439.56 9 1.25 9h13.502c.689 0 1.25-.561 1.25-1.25v-.5c0-.69-.561-1.25-1.25-1.25zm0-6H1.25C.56 0 0 .56 0 1.25v.5C0 2.44.56 3 1.25 3h13.502c.689 0 1.25-.56 1.25-1.25v-.5c0-.69-.561-1.25-1.25-1.25zm0 12H1.25C.56 12 0 12.561 0 13.25v.5C0 14.439.56 15 1.25 15h13.502c.689 0 1.25-.561 1.25-1.25v-.5c0-.689-.561-1.25-1.25-1.25z"/></svg>
